X: 74
T:Wedding An Dro
M:2/4
L:1/8
R:An Dro
Z:Steve Mansfield
K:Em
EB AB | GB FB | EB AB | G2 E2 | EB AB | GB FB | EB AB | G2E2 |
cB AG | EF GA | cB AG | E4 | DA GA | FA EA | DA GA | F2D2 |
DA GA | FA EA | DA GA | F2D2 | BA GF | BA GF | B2A2 | G2F2 |
E2G2 | B2e2 | d3c | Bc dB | c3B | AB cA | F3G |
AF GF | E2G2 | B2e2 | d3c | Bc dB | c3B | ABcA | F4 ||

